icon-themes/breeze_svg/cmd/32/symbolshapes.left-brace.svg

<svg viewBox="0 0 32 32" xmlns="http://www.w3.org/2000/svg"><path d="m15.044922 4c-1.77683 0-2.521487.7063656-2.521484 2.5097656v2.4414063c0 .0160827-.001937.0326761-.001954.0488281h.001954v3.951172c0 1.1138-.034197 2.404297-1.015626 2.404297h-.507812v1.289062h.507812c.981482 0 1.015623 1.290497 1.015626 2.404297v3.951172h-.001954c.000017.016152.001951.032745.001954.048828v2.441406c0 1.8034.744654 2.509766 2.521484 2.509766v-1.183594c-1.18455 0-1.201172-.478337-1.201172-2.210937v-1.605469h.007812c-.001198-.13832-.007812-2.235736-.007812-2.394531v-2.015625c0-.8309-.204705-2.067378-1.203125-2.580078.99842-.5127 1.203125-1.751032 1.203125-2.582032v-2.033203c0-.158795.006615-2.25621.007812-2.394531h-.007812v-1.6054688c0-1.7326.016602-2.2109374 1.201172-2.2109374z" fill="#4d4d4d"/></svg>

<svg xmlns="http://www.w3.org/2000/svg" viewBox="0 0 32 32">
 <path 
     style="fill:#4d4d4d" 
     d="M 15.044922 4 C 13.268092 4 12.523435 4.7063656 12.523438 6.5097656 L 12.523438 8.9511719 C 12.523438 8.9672546 12.521501 8.983848 12.521484 9 L 12.523438 9 L 12.523438 12.951172 C 12.523438 14.064972 12.489241 15.355469 11.507812 15.355469 L 11 15.355469 L 11 16.644531 L 11.507812 16.644531 C 12.489294 16.644531 12.523435 17.935028 12.523438 19.048828 L 12.523438 23 L 12.521484 23 C 12.521501 23.016152 12.523435 23.032745 12.523438 23.048828 L 12.523438 25.490234 C 12.523438 27.293634 13.268092 28 15.044922 28 L 15.044922 26.816406 C 13.860372 26.816406 13.84375 26.338069 13.84375 24.605469 L 13.84375 23 L 13.851562 23 C 13.850364 22.86168 13.84375 20.764264 13.84375 20.605469 L 13.84375 18.589844 C 13.84375 17.758944 13.639045 16.522466 12.640625 16.009766 C 13.639045 15.497066 13.84375 14.258734 13.84375 13.427734 L 13.84375 11.394531 C 13.84375 11.235736 13.850365 9.138321 13.851562 9 L 13.84375 9 L 13.84375 7.3945312 C 13.84375 5.6619312 13.860352 5.1835938 15.044922 5.1835938 L 15.044922 4 z "
     />
</svg>
